X: 10552
T: LADY MARY RAMSEY STRATHSPEY
C: Arranged by W. B. Laybourn
R: strathspey
B: K\"ohler's Violin Repository, v.1, 1885 p.55 #2
F: http://www.archive.org/details/klersviolinrepos01edin
Z: 2011 John Chambers <jc:trillian.mit.edu>
M: C|
L: 1/8
K: D
|:\
v[D3D3](B A<F)[FD]>B | A<F B<G A<F F<d |\
[D3D3](B A<F)[FD]>A | (3dcB (3AGF EA,(B,C) |
[D3D3](B A<F)[FD]>B | A<F B<G A<F F<d |\
[D3D3](B A<F)[FD]>A | (3Bcd (3AGF [E3A,3] || ug |
f<d [dF]>f e<c [cA]>e | d<B [BG]>d A<F [FD]>g |\
f<d [dF]>f e<c [cA]>A |(3Bcd (3AGF [E3A,3]g |
f<d [dF]>f e<c [cA]>e | d<B [BG]>d A<F [FD]>A |\
(3def (3edc (3Bcd (3AGF | (3GAB (3 ABc (3dAG "_Segue Reel."(3FGE |]

%%sep 2 1 500

